lib/brands/icons/google-play-services.svg

<svg xmlns="http://www.w3.org/2000/svg" fill="none" aria-hidden="true" viewBox="0 0 48 48"><g id="google-play-services-Icon"><g id="Group"><path id="Vector" fill="url(#paint0_linear_94_17668)" d="M27.1104 28.6512L38.04 39.5808V17.2752L27.1104 28.2048V28.6512V28.6512Z"/><path id="Vector_2" fill="url(#paint1_linear_94_17668)" d="M27.1106 28.2192L13.6754 14.784H12.1346C10.925 14.784 9.9458 15.7056 9.9458 16.9152V24.6336C9.9458 25.4112 10.5794 26.0448 11.357 26.0448C11.7026 26.0448 12.0194 25.9152 12.2498 25.7136L12.4802 25.5264C13.1426 24.9504 14.0066 24.6048 14.957 24.6048C17.0306 24.6048 18.7154 26.304 18.7154 28.3776C18.7154 30.4512 17.0306 32.1216 14.957 32.1216C14.0066 32.1216 13.1426 31.776 12.4802 31.2L12.2498 31.0128C11.9906 30.7968 11.6738 30.6816 11.357 30.6816C10.5794 30.6816 9.9458 31.3152 9.9458 32.0928V39.7248C9.9458 40.9344 10.925 41.9856 12.1346 41.9856H13.7762L27.125 28.6368V28.2192H27.1106Z"/><path id="Vector_3" fill="url(#paint2_linear_94_17668)" d="M38.0403 17.5056V16.9152C38.0403 15.7056 37.0611 14.784 35.8515 14.784H27.7299C26.9523 14.784 26.3187 14.1792 26.3187 13.4016C26.3187 13.056 26.4483 12.7248 26.6499 12.48L26.8371 12.2496C27.4131 11.5872 27.7587 10.7232 27.7587 9.7728C27.7587 7.6848 26.0739 6 24.0003 6C21.9267 6 20.2275 7.6848 20.2275 9.7584C20.2275 10.7088 20.5731 11.5728 21.1491 12.2352L21.3363 12.4656C21.5379 12.7104 21.6675 13.0416 21.6675 13.3728C21.6675 14.1504 21.0339 14.7552 20.2563 14.7552H13.4595L27.1107 28.4064L38.0403 17.5056Z"/><path id="Vector_4" fill="url(#paint3_linear_94_17668)" d="M13.5459 42H35.8659C37.0755 42 38.0547 40.9488 38.0547 39.7392V39.3648L27.1251 28.4352L13.5459 42Z"/><path id="Vector_5" fill="white" d="M24.0002 6.216C26.045 6.216 27.701 7.8432 27.7586 9.8736C27.7586 9.8304 27.7586 9.8016 27.7586 9.7584C27.7586 7.6848 26.0738 6 24.0002 6C21.9266 6 20.2274 7.6848 20.2274 9.7584C20.2274 9.8016 20.2274 9.8304 20.2274 9.8736C20.2994 7.8576 21.9554 6.216 24.0002 6.216ZM12.1346 15H20.2562C21.0338 15 21.6674 14.3952 21.6674 13.6176C21.6674 13.5888 21.6674 13.56 21.6674 13.5456C21.5954 14.2512 20.9906 14.7984 20.2562 14.7984H12.1346C10.925 14.784 9.9458 15.7056 9.9458 16.9152V17.1312C9.9458 15.9216 10.925 15 12.1346 15ZM11.357 30.9264C11.7026 30.9264 12.0194 31.056 12.2498 31.2576L12.4802 31.4448C13.1426 32.0208 14.0066 32.3664 14.957 32.3664C17.0306 32.3664 18.7154 30.696 18.7154 28.6224C18.7154 28.5792 18.7154 28.5504 18.7154 28.5072C18.6578 30.5376 17.0018 32.1504 14.957 32.1504C14.0066 32.1504 13.1426 31.8048 12.4802 31.2288L12.2498 31.0416C11.9906 30.8256 11.6738 30.7104 11.357 30.7104C10.5794 30.7104 9.9458 31.344 9.9458 32.1216V32.3376C9.9458 31.56 10.5794 30.9264 11.357 30.9264ZM35.8658 14.784H27.7442C27.0098 14.784 26.405 14.2512 26.333 13.5312C26.333 13.56 26.333 13.5888 26.333 13.6176C26.333 14.3952 26.9666 15 27.7442 15H35.8658C37.0754 15 38.0546 15.9216 38.0546 17.1312V16.9152C38.0402 15.7056 37.061 14.784 35.8658 14.784Z" opacity="0.25"/><g id="Union" opacity="0.12"><path fill="#231F20" d="M21.3362 12.48C21.5234 12.7104 21.6386 12.9984 21.653 13.3152C21.6962 12.9408 21.581 12.552 21.3362 12.264L21.149 12.0336C20.5874 11.4 20.2562 10.5792 20.2274 9.67202V9.77282C20.2274 10.7232 20.573 11.5872 21.149 12.2496C21.1634 12.2496 21.3362 12.48 21.3362 12.48Z"/><path fill="#231F20" d="M26.6498 12.2496C26.4482 12.4944 26.3186 12.8256 26.3186 13.1712V13.3152C26.333 12.9984 26.4482 12.696 26.6354 12.4656L26.8226 12.2352C27.3986 11.5728 27.7442 10.7088 27.7442 9.75842V9.65762C27.7154 10.5648 27.3842 11.3856 26.8226 12.0192L26.6498 12.2496Z"/><path fill="#231F20" d="M11.357 26.0448C11.7026 26.0448 12.0194 25.9152 12.2498 25.7136L12.4802 25.5264C13.1426 24.9504 14.0066 24.6048 14.957 24.6048C17.0018 24.6048 18.6578 26.2464 18.7154 28.2768V28.1616C18.7154 26.088 17.0306 24.3888 14.957 24.3888C14.0066 24.3888 13.1426 24.7344 12.4802 25.3104L12.2498 25.4976C11.9906 25.7136 11.6738 25.8288 11.357 25.8288C10.5794 25.8288 9.9458 25.1952 9.9458 24.4176V24.6336C9.9458 25.4112 10.5794 26.0448 11.357 26.0448Z"/><path fill="#231F20" d="M35.8658 41.784H12.1346C10.925 41.784 9.9458 40.7328 9.9458 39.5232V39.7392C9.9458 40.9488 10.925 42 12.1346 42H35.8658C37.0754 42 38.0546 40.9488 38.0546 39.7392V39.5232C38.0402 40.7328 37.061 41.784 35.8658 41.784Z"/></g></g></g><defs><linearGradient id="paint0_linear_94_17668" x1="38.8725" x2="12.8482" y1="28.4368" y2="28.4368" gradientUnits="userSpaceOnUse"><stop stop-color="#FFE000"/><stop offset="0.409" stop-color="#FFBD00"/><stop offset="0.775" stop-color="#FFA500"/><stop offset="1" stop-color="#FF9C00"/></linearGradient><linearGradient id="paint1_linear_94_17668" x1="26.1838" x2="0.790074" y1="14.6918" y2="24.791" gradientUnits="userSpaceOnUse"><stop stop-color="#00A0FF"/><stop offset="0.007" stop-color="#00A1FF"/><stop offset="0.26" stop-color="#00BEFF"/><stop offset="0.512" stop-color="#00D2FF"/><stop offset="0.76" stop-color="#00DFFF"/><stop offset="1" stop-color="#00E3FF"/></linearGradient><linearGradient id="paint2_linear_94_17668" x1="10.6063" x2="22.1564" y1="0.264446" y2="14.1342" gradientUnits="userSpaceOnUse"><stop stop-color="#32A071"/><stop offset="0.069" stop-color="#2DA771"/><stop offset="0.476" stop-color="#15CF74"/><stop offset="0.801" stop-color="#06E775"/><stop offset="1" stop-color="#00F076"/></linearGradient><linearGradient id="paint3_linear_94_17668" x1="32.6755" x2="22.1634" y1="34.4637" y2="68.7426" gradientUnits="userSpaceOnUse"><stop stop-color="#FF3A44"/><stop offset="1" stop-color="#C31162"/></linearGradient></defs></svg>

<svg xmlns="http://www.w3.org/2000/svg" fill="none" aria-hidden="true" viewBox="0 0 48 48"><path fill="url(#a)" d="m27.11 28.651 10.93 10.93V17.275l-10.93 10.93v.446Z"/><path fill="url(#b)" d="M27.11 28.22 13.675 14.783h-1.54c-1.21 0-2.19.922-2.19 2.131v7.719c0 .777.634 1.41 1.412 1.41.345 0 .662-.129.893-.33l.23-.188a3.755 3.755 0 0 1 2.477-.921c2.073 0 3.758 1.699 3.758 3.773a3.749 3.749 0 0 1-3.758 3.744c-.95 0-1.815-.346-2.477-.922l-.23-.187a1.4 1.4 0 0 0-.893-.331c-.778 0-1.411.633-1.411 1.41v7.633c0 1.21.979 2.26 2.188 2.26h1.642l13.349-13.348v-.418h-.015Z"/><path fill="url(#c)" d="M38.04 17.506v-.59c0-1.21-.98-2.132-2.189-2.132H27.73c-.778 0-1.412-.605-1.412-1.382 0-.346.13-.677.331-.922l.188-.23a3.755 3.755 0 0 0 .921-2.477A3.764 3.764 0 0 0 24 6c-2.074 0-3.773 1.685-3.773 3.758 0 .95.346 1.815.922 2.477l.187.23c.202.245.331.577.331.908 0 .777-.634 1.382-1.411 1.382h-6.797L27.11 28.406l10.93-10.9Z"/><path fill="url(#d)" d="M13.546 42h22.32c1.21 0 2.188-1.051 2.188-2.26v-.375l-10.93-10.93L13.547 42Z"/><path fill="#fff" d="M24 6.216a3.76 3.76 0 0 1 3.758 3.658v-.116A3.761 3.761 0 0 0 24 6c-2.074 0-3.773 1.685-3.773 3.758v.116C20.3 7.858 21.955 6.216 24 6.216ZM12.134 15h8.122c.778 0 1.411-.605 1.411-1.382v-.072a1.408 1.408 0 0 1-1.411 1.252h-8.122c-1.21-.014-2.188.908-2.188 2.117v.216c0-1.21.979-2.131 2.188-2.131Zm-.777 15.926c.345 0 .662.13.893.332l.23.187a3.755 3.755 0 0 0 2.477.921 3.749 3.749 0 0 0 3.758-3.744v-.115a3.747 3.747 0 0 1-3.758 3.643c-.95 0-1.815-.345-2.477-.921l-.23-.187a1.4 1.4 0 0 0-.893-.332c-.778 0-1.411.634-1.411 1.412v.216c0-.778.633-1.412 1.41-1.412Zm24.509-16.142h-8.122c-.734 0-1.34-.533-1.411-1.253v.087c0 .777.633 1.382 1.411 1.382h8.122c1.21 0 2.188.922 2.188 2.131v-.216c-.014-1.21-.993-2.131-2.188-2.131Z" opacity=".25"/><path fill="#231F20" d="M21.336 12.48c.187.23.302.518.317.835a1.393 1.393 0 0 0-.317-1.051l-.187-.23a3.706 3.706 0 0 1-.922-2.362v.1c0 .951.346 1.815.922 2.478.014 0 .187.23.187.23Zm5.314-.23a1.47 1.47 0 0 0-.332.921v.144a1.47 1.47 0 0 1 .317-.85l.187-.23a3.755 3.755 0 0 0 .922-2.477v-.1a3.706 3.706 0 0 1-.922 2.361l-.172.23ZM11.357 26.045c.345 0 .662-.13.893-.331l.23-.188a3.755 3.755 0 0 1 2.477-.921c2.045 0 3.7 1.641 3.758 3.672v-.115c0-2.074-1.685-3.773-3.758-3.773-.95 0-1.815.345-2.477.921l-.23.188a1.4 1.4 0 0 1-.893.33 1.414 1.414 0 0 1-1.411-1.41v.216c0 .777.633 1.41 1.41 1.41Zm24.509 15.739H12.134c-1.21 0-2.188-1.051-2.188-2.26v.215c0 1.21.979 2.261 2.188 2.261h23.732c1.21 0 2.188-1.051 2.188-2.26v-.217c-.014 1.21-.993 2.261-2.188 2.261Z" opacity=".12"/><defs><linearGradient id="a" x1="38.873" x2="12.848" y1="28.437" y2="28.437" gradientUnits="userSpaceOnUse"><stop stop-color="#FFE000"/><stop offset=".409" stop-color="#FFBD00"/><stop offset=".775" stop-color="orange"/><stop offset="1" stop-color="#FF9C00"/></linearGradient><linearGradient id="b" x1="26.184" x2=".79" y1="14.692" y2="24.791" gradientUnits="userSpaceOnUse"><stop stop-color="#00A0FF"/><stop offset=".007" stop-color="#00A1FF"/><stop offset=".26" stop-color="#00BEFF"/><stop offset=".512" stop-color="#00D2FF"/><stop offset=".76" stop-color="#00DFFF"/><stop offset="1" stop-color="#00E3FF"/></linearGradient><linearGradient id="c" x1="10.606" x2="22.156" y1=".264" y2="14.134" gradientUnits="userSpaceOnUse"><stop stop-color="#32A071"/><stop offset=".069" stop-color="#2DA771"/><stop offset=".476" stop-color="#15CF74"/><stop offset=".801" stop-color="#06E775"/><stop offset="1" stop-color="#00F076"/></linearGradient><linearGradient id="d" x1="32.675" x2="22.163" y1="34.464" y2="68.743" gradientUnits="userSpaceOnUse"><stop stop-color="#FF3A44"/><stop offset="1" stop-color="#C31162"/></linearGradient></defs></svg>
